!!!ONR: No. 35
!! From Harold Courlander, "Haiti Singing"
!! Chapel Hill: University of North Carolina Press, 1939
!! Copyright University of North Carolina Press
!!!ENC: D. Huron
**kern
*clefG2
*k[]
*M2/4
=1-
8r
8a
8a
8a
=
4dd
[4dd
=
8dd]
8cc
8ee
8dd
=
[2cc
=
8cc]
8a
8a
8a
=
4cc
[4cc
=
8cc]
8a
8cc
8dd
=
8ee
8dd
8ee
8dd
=
8cc
8a
8cc
8cc
=
[2a
=
8a]
8a
8a
8a
=
8cc
[4.cc
=
2cc]
==
*-
